X: 546
T: Nian gaomian
%%abc-version 2.0
%%abcx-abcm2ps-target-version 5.9.1 (29 Sep 2008)
%%abc-creator hum2abc beta
%%abcx-conversion-date 2013/10/02 07:52:30
%%abc-edited-by Helmut Schaffrath
%%humdrum-veritas 3429346914
%%humdrum-veritas-data 3499700792
%%continueall 1
%%barnumbers 0
L: 1/8
M: 2/4
K: F
A f e d [I:setbarnb 1]| 
A f e d | 
f c d c | 
d c A f | 
e d f c- | 
c dc2 | 
f cf2 | 
g f e d | 
c df2 | 
f> A A G | 
F GF2 | 
c B A G | 
A/ A/ A/ G/F2 | 
c> df2 | 
c2B2 | 
A A/ G/ A G/ G/ | 
F GF2 |]  



